material/.icons/material/flash-outline.svg

<svg xmlns="http://www.w3.org/2000/svg" viewBox="0 0 24 24"><path d="M7 2h10l-3.5 7H17l-7 13v-8H7V2m2 2v8h3v2.66L14 11h-3.76l3.52-7H9z"/></svg>

<?xml version="1.0" encoding="UTF-8"?><!DOCTYPE svg PUBLIC "-//W3C//DTD SVG 1.1//EN" "http://www.w3.org/Graphics/SVG/1.1/DTD/svg11.dtd"><svg xmlns="http://www.w3.org/2000/svg" xmlns:xlink="http://www.w3.org/1999/xlink" version="1.1" id="mdi-flash-outline" width="24" height="24" viewBox="0 0 24 24"><path d="M7,2H17L13.5,9H17L10,22V14H7V2M9,4V12H12V14.66L14,11H10.24L13.76,4H9Z" /></svg>
